X:1
T:(Unnamed)
M:2/4
L:1/4
K:C
 D| G G| A A| B d| B B| D/2D/2 B| A2| D/2D/2 A| G3/2 D/2| G G| A A|\
 B d| B B/2B/2| A/2A/2 d| A/2A/2 d| G2-| G||

